X:348
T:Opposition Creek
C:John McIltrot
N:From "Plectrology III" Transcribed by Kim Davis and Mike Stangeland
R:bluegrass
L:1/8
Q:1/4=240
M:4/4
K:D
z6 AB |: "D"=cA G=F D2 [DD]D | z2 =FD AG FD | =cA G=F D=C DF | "C"=FD E=C "D"D2 AB | 
=cA G=F D2 [DD]D | z2 =FD AG FD | =cd d=f dc A=F | "A"GA G=F D2 [BD]=c :|: "D"[d2D2] {c}d2 D2 {c}d2 | 
dd d=f dc/=c/ A=F | "F"D2 DE =FG A=c | "C"A=F GA GF ED | "D"=CE DC A,C DC | DE =FG AF GA | 
=cd d=f dc A=F | "A"GA G=F "D"D2 =c2 :|: "D"z2 [d4F4D4] [d2F2D2] | "D"z2 [d4F4D4] [d2F2D2] | 
"D"z2 [d4F4D4] [d2F2D2] | "C"[=c4E4G,4] "D"[A4D4A,4] | "D"z2 [d4F4D4] [d2F2D2] | 
"D"z2 [d4F4D4] [d2F2D2] | "D"[A4D4D4] "C"[=c4E4G,4] | "A"[A4E4A,4] "D"[A4D4A,4] :|: "D"z2 [d4F4D4] [d2F2D2] | 
"D"z2 [d4F4D4] [d2F2D2] | "D"z2 [d4F4D4] [d2F2D2] | "C"z2 [=c4E4=C4] [c2E2C2] | 
"D"z2 [d4F4D4] [d2F2D2] | "D"z2 [d4F4D4] [d2F2D2] | "D"[A4D4D4] "C"[=c4E4G,4] | 
"A"[A4E4A,4] "D"[A4D4A,4] :| =FD =cG cA dc | =cA a=f [a4A4] | z8 | 


